src/icon/entity/cashback-bonus/icon_cashback-bonus_s_color.svg

<?xml version="1.0" encoding="UTF-8"?>
<svg width="18px" height="18px" viewBox="0 0 18 18" version="1.1" xmlns="http://www.w3.org/2000/svg" xmlns:xlink="http://www.w3.org/1999/xlink">
    <!-- Generator: Sketch 49.1 (51147) - http://www.bohemiancoding.com/sketch -->
    <title>icon_cashback-bonus_s_color</title>
    <desc>Created with Sketch.</desc>
    <defs></defs>
    <g id="icon_cashback-bonus_s_color" stroke="none" stroke-width="1" fill="none" fill-rule="evenodd">
        <g id="Group-2">
            <rect id="Rectangle-11" x="0" y="0" width="18" height="18"></rect>
            <g id="Group" transform="translate(2.000000, 2.000000)" fill-rule="nonzero">
                <rect id="Rectangle-path-Copy" fill="#FFD700" x="0" y="0" width="14" height="14" rx="7"></rect>
                <path d="M7.65666667,4.58991811 C7.70333334,4.71434648 8.78266666,7.64192277 8.81466667,7.72966075 C8.82400002,7.75390828 8.81799996,7.79442726 8.77966667,7.80878441 C8.74166667,7.82314156 8.18066666,8.03913644 8.1496667,8.0506221 C8.11866666,8.06242685 8.08366666,8.04519836 8.07233336,8.01456982 C8.0606667,7.98426031 7.81399996,7.2676805 7.78766663,7.19621397 L6.24,7.18983304 L5.93066666,8.01456982 C5.91966666,8.04392216 5.88633334,8.06370305 5.85333333,8.0506221 L5.22366667,7.80878441 C5.19165853,7.79571118 5.17597477,7.76091798 5.188,7.72966075 C5.228,7.61990855 6.29066666,4.73955121 6.34533333,4.58991811 C6.45033333,4.29958524 6.586,4 7.00133335,4 C7.41699997,4 7.5476667,4.29479953 7.65666667,4.58991811 Z M5.062,9.17462511 C5.02766667,9.17462511 5,9.20302026 5,9.23779641 L5,9.93714772 C5,9.97224288 5.02766667,10 5.062,10 L8.93866667,10 C8.97266663,10 9,9.97224288 9,9.93714772 L9,9.23779641 C9,9.20270124 8.97266663,9.17494413 8.93866667,9.17494413 L5.062,9.17494413 L5.062,9.17462511 Z M6.45333333,6.53578644 L7.54366667,6.53578644 L7.0566667,4.96288418 L6.92966667,4.96288418 L6.45333333,6.53578644 Z" id="Shape-Copy" fill="#0B1F35"></path>
            </g>
        </g>
    </g>
</svg>

<svg width="18" height="18" viewBox="0 0 18 18" xmlns="http://www.w3.org/2000/svg"><g fill="none" fill-rule="evenodd"><path d="M0 0h18v18H0z"/><g transform="translate(2 2)" fill-rule="nonzero"><rect fill="gold" width="14" height="14" rx="7"/><path d="M7.657 4.59l1.158 3.14c.009.024.003.064-.035.079l-.63.242a.06.06 0 0 1-.078-.036l-.284-.819L6.24 7.19l-.31.825c-.01.029-.044.049-.077.036l-.63-.242a.062.062 0 0 1-.035-.08c.04-.11 1.103-2.99 1.157-3.14C6.45 4.3 6.586 4 7.001 4c.416 0 .547.295.656.59zM5.062 9.175A.063.063 0 0 0 5 9.238v.7c0 .034.028.062.062.062h3.877A.062.062 0 0 0 9 9.937v-.7a.062.062 0 0 0-.061-.062H5.062zm1.391-2.64h1.09l-.486-1.572H6.93l-.477 1.573z" fill="#0B1F35"/></g></g></svg>
